X: 25123
T: Mairi's Wedding
R: polka
M: 2/4
K: Adorian
A>A AB|de f2|ed Bd|fe f2|
A>A AB|de f2|ed BG|A2 A2||
a>a ab|ag f2|ed Bd|fe f<a|
a>a ab|ag f2|ed BG|A2 A2||

